svg/editor/list_collapse_fill.svg

<?xml version="1.0" encoding="UTF-8"?>
<svg width="24px" height="24px" viewBox="0 0 24 24" version="1.1" xmlns="http://www.w3.org/2000/svg" xmlns:xlink="http://www.w3.org/1999/xlink">
    <title>list_collapse_fill</title>
    <g id="Icon" stroke="none" stroke-width="1" fill="none" fill-rule="evenodd">
        <g id="Editor" transform="translate(-576.000000, -240.000000)" fill-rule="nonzero">
            <g id="list_collapse_fill" transform="translate(576.000000, 240.000000)">
                <path d="M24,0 L24,24 L0,24 L0,0 L24,0 Z M12.5934901,23.257841 L12.5819402,23.2595131 L12.5108777,23.2950439 L12.4918791,23.2987469 L12.4918791,23.2987469 L12.4767152,23.2950439 L12.4056548,23.2595131 C12.3958229,23.2563662 12.3870493,23.2590235 12.3821421,23.2649074 L12.3780323,23.275831 L12.360941,23.7031097 L12.3658947,23.7234994 L12.3769048,23.7357139 L12.4804777,23.8096931 L12.4953491,23.8136134 L12.4953491,23.8136134 L12.5071152,23.8096931 L12.6106902,23.7357139 L12.6232938,23.7196733 L12.6232938,23.7196733 L12.6266527,23.7031097 L12.609561,23.275831 C12.6075724,23.2657013 12.6010112,23.2592993 12.5934901,23.257841 L12.5934901,23.257841 Z M12.8583906,23.1452862 L12.8445485,23.1473072 L12.6598443,23.2396597 L12.6498822,23.2499052 L12.6498822,23.2499052 L12.6471943,23.2611114 L12.6650943,23.6906389 L12.6699349,23.7034178 L12.6699349,23.7034178 L12.678386,23.7104931 L12.8793402,23.8032389 C12.8914285,23.8068999 12.9022333,23.8029875 12.9078286,23.7952264 L12.9118235,23.7811639 L12.8776777,23.1665331 C12.8752882,23.1545897 12.8674102,23.1470016 12.8583906,23.1452862 L12.8583906,23.1452862 Z M12.1430473,23.1473072 C12.1332178,23.1423925 12.1221763,23.1452606 12.1156365,23.1525954 L12.1099173,23.1665331 L12.0757714,23.7811639 C12.0751323,23.7926639 12.0828099,23.8018602 12.0926481,23.8045676 L12.108256,23.8032389 L12.3092106,23.7104931 L12.3186497,23.7024347 L12.3186497,23.7024347 L12.3225043,23.6906389 L12.340401,23.2611114 L12.337245,23.2485176 L12.337245,23.2485176 L12.3277531,23.2396597 L12.1430473,23.1473072 Z" id="MingCute"></path>
                <path d="M4,6.5 C3.17157,6.5 2.5,5.82843 2.5,5 C2.5,4.17157 3.17157,3.5 4,3.5 L11.5,3.5 C12.3284,3.5 13,4.17157 13,5 C13,5.82843 12.3284,6.5 11.5,6.5 L4,6.5 Z M21.3118,8.17407 C21.597,8.73224 21.1667,9.39346 20.4808,9.4527 L20.1128888,9.48161576 L20.1128888,9.48161576 L19.6733904,9.50931329 L19.6733904,9.50931329 L19.1673976,9.53280794 C18.9882168,9.53960739 18.7988024,9.54520892 18.6000032,9.54911509 L17.9763,9.5552501 L17.9763,9.5552501 L17.3862614,9.54985335 L17.3862614,9.54985335 L16.846163,9.53523834 L16.846163,9.53523834 L16.1390172,9.50152219 L16.1390172,9.50152219 L15.5683158,9.46118366 C15.5130198,9.45664744 15.4605182,9.45214545 15.4109,9.44773 C14.7708,9.39078 14.4025,8.79018 14.6841,8.2372 L14.9309754,7.76967016 L14.9309754,7.76967016 L15.144375,7.388185 L15.144375,7.388185 L15.3977346,6.95668384 C15.534534,6.7292611 15.68661,6.484954 15.8544,6.22657 C16.02231,5.968009 16.184361,5.7286144 16.3375911,5.50945297 L16.6314125,5.09842375 C16.67813,5.0345205 16.723648,4.9729444 16.7678568,4.91373496 L17.1274257,4.44581659 C17.162792,4.4011627 17.19652,4.358994 17.2285,4.31935 C17.6259,3.82672 18.3944,3.80897 18.7702,4.27275 L18.9833448,4.54076808 L18.9833448,4.54076808 L19.2347984,4.86945864 C19.279568,4.9291578 19.325685,4.991281 19.373025,5.05577625 L19.6707458,5.47079643 C19.7224802,5.54457192 19.7751888,5.62061548 19.8287472,5.69887512 L20.1593,6.19461 L20.1593,6.19461 C20.32232,6.445575 20.470706,6.6838914 20.6047307,6.90662781 L20.8537125,7.33045875 L20.8537125,7.33045875 L21.0648823,7.70753169 L21.0648823,7.70753169 L21.2387249,8.03263527 C21.264615,8.0821989 21.28897,8.12938 21.3118,8.17407 Z M21.3118,18.1739 C21.597,18.7321 21.1667,19.3933 20.4808,19.4526 L20.1128888,19.4814904 L20.1128888,19.4814904 L19.6733904,19.5091712 L19.6733904,19.5091712 L19.1673976,19.5326568 L19.1673976,19.5326568 L18.6000032,19.5489617 C18.401204,19.5528681 18.19302,19.5551001 17.9763,19.5551001 L17.3862614,19.5497112 L17.3862614,19.5497112 L16.846163,19.5351063 L16.846163,19.5351063 L16.1390172,19.501402 L16.1390172,19.501402 L15.5683158,19.4610602 C15.5130198,19.4565223 15.4605182,19.4520182 15.4109,19.4476 C14.7708,19.3907 14.4025,18.7901 14.6841,18.2371 L14.8390176,17.939984 C14.8680484,17.885534 14.8986956,17.828688 14.9309754,17.76955 L15.144375,17.38805 L15.144375,17.38805 L15.3977346,16.956534 L15.3977346,16.956534 L15.6918318,16.479994 C15.744286,16.397096 15.79847,16.31253 15.8544,16.2264 C15.96634,16.05404 16.075676,15.890196 16.1815304,15.735184 L16.4877712,15.29696 L16.4877712,15.29696 L16.7678568,14.913624 L16.7678568,14.913624 L17.1274257,14.4456825 C17.162792,14.401024 17.19652,14.35885 17.2285,14.3192 C17.6259,13.8266 18.3944,13.8089 18.7702,14.2726 L18.9833448,14.5406376 L18.9833448,14.5406376 L19.2347984,14.8693328 C19.279568,14.929032 19.325685,14.991155 19.373025,15.05565 L19.6707458,15.4706696 C19.7224802,15.5444454 19.7751888,15.6204896 19.8287472,15.6987504 L20.1593,16.1945 L20.1593,16.1945 C20.32232,16.44545 20.470706,16.683755 20.6047307,16.9064828 L20.8537125,17.3303 L20.8537125,17.3303 L21.0648823,17.7073652 L21.0648823,17.7073652 L21.2387249,18.0324656 C21.264615,18.082029 21.28897,18.12921 21.3118,18.1739 Z M4,20.5 C3.17157,20.5 2.5,19.8284 2.5,19 C2.5,18.1716 3.17157,17.5 4,17.5 L11.5,17.5 C12.3284,17.5 13,18.1716 13,19 C13,19.8284 12.3284,20.5 11.5,20.5 L4,20.5 Z M2.5,12 C2.5,12.8284 3.17157,13.5 4,13.5 L11.5,13.5 C12.3284,13.5 13,12.8284 13,12 C13,11.1716 12.3284,10.5 11.5,10.5 L4,10.5 C3.17157,10.5 2.5,11.1716 2.5,12 Z" id="形状" fill="#09244B"></path>
            </g>
        </g>
    </g>
</svg>

<svg xmlns="http://www.w3.org/2000/svg" width="24" height="24"><g fill="none" fill-rule="nonzero"><path d="M24 0v24H0V0h24ZM12.593 23.258l-.011.002-.071.035-.02.004-.014-.004-.071-.035c-.01-.004-.019-.001-.024.005l-.004.01-.017.428.005.02.01.013.104.074.015.004.012-.004.104-.074.012-.016.004-.017-.017-.427c-.002-.01-.009-.017-.017-.018Zm.265-.113-.013.002-.185.093-.01.01-.003.011.018.43.005.012.008.007.201.093c.012.004.023 0 .029-.008l.004-.014-.034-.614c-.003-.012-.01-.02-.02-.022Zm-.715.002a.023.023 0 0 0-.027.006l-.006.014-.034.614c0 .012.007.02.017.024l.015-.002.201-.093.01-.008.004-.011.017-.43-.003-.012-.01-.01-.184-.092Z"/><path fill="#09244B" d="M4 6.5a1.5 1.5 0 1 1 0-3h7.5a1.5 1.5 0 0 1 0 3H4Zm17.312 1.674c.285.558-.145 1.22-.831 1.279l-.368.029-.44.027-.506.024c-.179.007-.368.012-.567.016l-.624.006-.59-.005-.54-.015-.707-.033-.57-.04a22.894 22.894 0 0 1-.158-.014c-.64-.057-1.008-.658-.727-1.21l.247-.468.213-.382.254-.431a25.048 25.048 0 0 1 .94-1.448l.293-.41.137-.185.36-.468.1-.127c.398-.492 1.166-.51 1.542-.046l.213.268.252.328.138.187.298.415.158.228.33.496c.163.25.312.489.446.712l.249.423.21.378.175.325.073.141Zm0 10c.285.558-.145 1.22-.831 1.279l-.368.028-.44.028-.506.024-.567.016a31.75 31.75 0 0 1-.624.006l-.59-.005-.54-.015-.707-.034-.57-.04a22.812 22.812 0 0 1-.158-.013c-.64-.057-1.008-.658-.727-1.21l.155-.298.092-.17.213-.382.254-.431.294-.477a25.588 25.588 0 0 1 .49-.745l.306-.438.28-.383.36-.468.1-.127c.398-.492 1.166-.51 1.542-.046l.213.268.252.328.138.187.298.415.158.228.33.496c.163.25.312.489.446.711l.249.424.21.377.175.325.073.142ZM4 20.5a1.5 1.5 0 0 1 0-3h7.5a1.5 1.5 0 0 1 0 3H4ZM2.5 12A1.5 1.5 0 0 0 4 13.5h7.5a1.5 1.5 0 0 0 0-3H4A1.5 1.5 0 0 0 2.5 12Z"/></g></svg>
